X:118
T:Reel 118
M:4/4
K:Dmaj
L:1/8
d>D (3DCD F>D (3DCD |ECC (3EDC D2FE|D>d (3dcD A>D (3DCD |ECB,A, B,A,B,C|D>D (3DCD A,D (3DCD |E>C (3CB,C E>C (3A,B,C |DEDG FAdc| (3Bcd ce dBAF|Ddcd AFDECA,CE | (3CEE  (3EEE B>E (3EDC |DAF (3dcd A>F (3FED |E>C (3CB,A, EA,CE:||2 (3Acc dA FABc|dAFD CEAE|D2cA d2cd| (3Bcd AF FEE2| (3CDA, EA, FA,EC|DFAD CEA,2|AdBc dABA (3GFE |DCDA, DCDE|A>d (3dcd A>F (3FED |
